miniprogram/images/nearby-stores/heart-icon.svg

<svg width="18" height="15" viewBox="0 0 18 15" fill="none" xmlns="http://www.w3.org/2000/svg">
<path d="M15.4839 1.58065C17.9032 3.6129 17.5484 6.93548 15.8387 8.70968L10.1613 14.4839C9.83871 14.8065 9.41935 15 8.96774 15C8.48387 15 8.06452 14.8065 7.74194 14.4839L2.09677 8.70968C0.354839 6.93548 0 3.6129 2.41935 1.58065C4.29032 0 7.16129 0.225806 8.96774 2.06452C10.7419 0.225806 13.6129 0 15.4839 1.58065ZM14.7097 7.6129C15.9032 6.41935 16.129 4.16129 14.4839 2.74194C13.2258 1.70968 11.2903 1.87097 10.0968 3.09677L8.96774 4.25806L7.83871 3.09677C6.6129 1.87097 4.67742 1.70968 3.41935 2.77419C1.77419 4.16129 2 6.41935 3.19355 7.6129L8.83871 13.3871C8.93548 13.4516 9 13.4516 9.06452 13.3871L14.7097 7.6129Z" fill="white"/>
</svg>

<svg xmlns="http://www.w3.org/2000/svg" width="18" height="15" fill="none" viewBox="0 0 18 15"><path fill="#fff" d="M15.484 1.58c2.42 2.033 2.064 5.355.355 7.13l-5.678 5.774A1.7 1.7 0 0 1 8.968 15c-.484 0-.903-.194-1.226-.516L2.097 8.71C.355 6.935 0 3.613 2.419 1.58 4.29 0 7.161.227 8.968 2.066 10.742.225 13.613 0 15.484 1.58m-.774 6.033c1.193-1.194 1.419-3.452-.226-4.871-1.258-1.032-3.194-.871-4.387.355l-1.13 1.161L7.84 3.097C6.613 1.87 4.677 1.71 3.419 2.774 1.774 4.161 2 6.42 3.194 7.613l5.645 5.774c.096.065.161.065.226 0z"/></svg>
